_/img/lisk-white.svg

<svg width="32" height="37" viewBox="0 0 32 37" fill="none" xmlns="http://www.w3.org/2000/svg">
<path d="M12.1397 36.6144L16.9309 31.2336C17.0102 31.1478 16.9441 31.0091 16.8318 31.0091H11.5648C11.5251 31.0091 11.4921 30.9893 11.4657 30.9629L6.99171 25.9452C6.95206 25.899 6.94545 25.8396 6.97849 25.7868L14.4527 12.9652C14.4792 12.9256 14.4792 12.8728 14.4527 12.8266L11.3401 7.48534C11.2872 7.39291 11.1551 7.39291 11.1088 7.48534L0.019729 26.4866C-0.00670509 26.5394 -9.65766e-05 26.5988 0.032946 26.6451L8.92139 36.6144C8.94783 36.6408 8.98087 36.6607 9.02052 36.6607H12.034C12.0737 36.6607 12.1133 36.6408 12.1397 36.6144Z" fill="white"/>
<path d="M15.4242 0.0643719L12.3116 5.40559C12.2851 5.4452 12.2851 5.49802 12.3116 5.54423L15.5431 11.0901L24.1144 25.7867C24.1408 25.8395 24.1342 25.8989 24.1012 25.9452L19.5875 31.0091L14.7567 36.4295C14.6774 36.5154 14.7435 36.654 14.8559 36.654H22.0591C22.0988 36.654 22.1318 36.6342 22.1583 36.6078L31.0467 26.6384C31.0864 26.5922 31.093 26.5328 31.0599 26.4799L15.6555 0.0643719C15.6026 -0.0214573 15.4704 -0.0214573 15.4242 0.0643719Z" fill="white"/>
</svg>

<svg width="32" height="37" viewBox="0 0 32 37" fill="none" xmlns="http://www.w3.org/2000/svg"><path d="M12.14 36.614l4.79-5.38c.08-.086.014-.225-.098-.225h-5.267a.14.14 0 01-.1-.046l-4.473-5.018a.13.13 0 01-.014-.158l7.475-12.822a.13.13 0 000-.138L11.34 7.485c-.053-.092-.185-.092-.231 0L.019 26.487a.152.152 0 00.014.158l8.888 9.97a.14.14 0 00.1.046h3.013c.04 0 .08-.02.106-.047z" fill="#fff"/><path d="M15.424.064l-3.112 5.342a.13.13 0 000 .138l3.231 5.546 8.571 14.697a.152.152 0 01-.013.158l-4.514 5.064-4.83 5.42c-.08.086-.014.225.099.225h7.203a.14.14 0 00.1-.046l8.888-9.97a.129.129 0 00.013-.158L15.656.064c-.053-.085-.186-.085-.232 0z" fill="#fff"/></svg>
